!!!OTL: Gedenke mein.
!!!OTL-incipit: ICH STUND AUF HOHEM BERGE
!!!ARE: Europa, Mitteleuropa, Deutschland
!!!SCT: Z1157
!!!TXL: @@DE
!!!YEM: Copyright 1995, estate of Helmut Schaffrath.
**kern	**text
*ICvox	*
*M4/4	*
*met(c)	*
*k[b-]	*
*F:	*
{4cc	Jch
=1	=1
4ff	ſtund
4cc	auf
8ccL	ho-
8b-J	.
8aL	-hem
8gJ	.
=2	=2
(4.f	Ber-
8g)	.
4a}	-ge,
{4a	ſchaut'
=3	=3
4a	in
4g	das
8ccL	tie-
8b-J	.
8aL	-fe
8gJ	.
=4	=4
2f	Meer,
4r}	.
{8fL	dar-
8gJ	.
=5	=5
4a	-in
4a	las
4g	ich
4g	ge-
=6	=6
(4.g	-ſchrie-
16aL	.
16b-J)	.
4cc}	-ben
{(8ccL	daß
8b-J)	.
=7	=7
4a	wir
4a	uns
4g	ſol-
4g	-len
=8	=8
(4.g	lie-
16aL	.
16b-J)	.
4cc}	-ben,
{(8ccL	und
8b-J)	.
=9	=9
4a	treu
4a	ver-
8ccL	-bun-
8b-J	.
4g	-den
=10	=10
2f	ſeyn.
4r}	.
==	==
!!!AGN: Liebes - Lied, Abschieds - Lied
!!!ONB: ESAC (Essen Associative Code) Database: ZUCCAL
!!!AMT: simple quadruple
!!!AIN: vox
!!!EED: Helmut Schaffrath
!!!EEV: 1.0
!!!GTL: V. Lieder der Minne.
!!!URL-scan: https://www.digitale-sammlungen.de/de/view/bsb11160573?page=339
!!!ENC: Anna Maria Matuszewska
!!!EEV: 2025/02/05
*-	*-
